src/Icon/svgs/Badge.svg

<svg width="24" height="24" viewBox="0 0 24 24" fill="none" xmlns="http://www.w3.org/2000/svg">
<path fill-rule="evenodd" clip-rule="evenodd" d="M4 20C2.89543 20 2 19.1046 2 18V6C2 4.89543 2.89543 4 4 4H20C21.1046 4 22 4.89543 22 6V18C22 19.1046 21.1046 20 20 20H4ZM9.40574 14.4639C9.31863 14.9309 9.61906 15.1308 10.0768 14.9102L11.9999 13.9839L13.9234 14.9102C14.3816 15.1308 14.6811 14.9309 14.594 14.4639L14.2269 12.5019L15.7829 11.1123C16.1531 10.7812 16.0384 10.458 15.5264 10.39L13.3763 10.1037L12.4145 8.3188C12.1856 7.89373 11.8145 7.89373 11.5857 8.3188L10.6235 10.1037L8.47377 10.39C7.96178 10.458 7.84668 10.7812 8.21733 11.1123L9.77328 12.5019L9.40574 14.4639Z" fill="#1B1C1D"/>
</svg>

<svg xmlns="http://www.w3.org/2000/svg" width="24" height="24" fill="none"><path fill-rule="evenodd" d="M4 20a2 2 0 0 1-2-2V6a2 2 0 0 1 2-2h16a2 2 0 0 1 2 2v12a2 2 0 0 1-2 2H4zm5.406-5.536c-.087.467.213.667.671.446L12 13.984l1.924.926c.458.221.758.021.671-.446l-.367-1.962 1.556-1.39c.37-.331.255-.654-.256-.722l-2.15-.286-.962-1.785c-.229-.425-.6-.425-.829 0l-.962 1.785-2.15.286c-.512.068-.627.391-.256.722l1.556 1.39-.368 1.962z" fill="#1B1C1D"/></svg>
